X:1
T:Hear Ye Him (Thompson)
T:Hear Ye Him (Thompson)
T:Edgar Craig
T:Stella May Thompson, 1913
T:Public Domain Courtesy of the Cyber Hymnal™
T:Public Domain Courtesy of the Cyber Hymnal™
C:Edgar Craig
Z:Public Domain
Z:Courtesy of the Cyber Hymnal™
%%score 1 2
L:1/8
Q:1/4=97
M:4/4
K:Bb
V:1 treble 
V:2 bass 
V:1
 [DF][DF] | [DF]2 [DB][Ec] [DB]2 [DF][DB] | [Ec]2 [EB][EG] [DF]2 [DF][DB] | %3
w: 1.~While the|Shep- herd is call- ing, O|Lamb gone a- stray, To the|
w: 2.~“Hear ye|Him,” is the Fa- ther’s en-|treat- y di- vine, To each|
w: 3.~He is|bid- ding you now to the|har- vest so white, There to|
w: 4.~When the|tem- pest is rag- ing and|dark is the night, Still the|
 [Fd]2 [Fd][Fd] [Fd]3 [FB] | [Fc]6 [DF][EG] | [DF]2 [DB][Ec] [Fd]2 [Fd][DB] | %6
w: shel- ter- ing fold re-|turn; Hear ye|Him, and the won- der- ful|
w: pil- grim who jour- neys|here; O be-|lieve His sweet mes- sage, sin’s|
w: ga- ther the fall- en|grain; Hear ye|Him, and with reap- ers of|
w: Sav- ior is kind- ly|near; Hear ye|Him, as He mur- murs, “Fear|
 [Ec]2 [EB][EG] [DF]2 [DB][Ec] | [Fd]2 [DF][DB] [Fd]3 [Ec] | [DB]6 ||"^Refrain" [DF][DF] | %10
w: sum- mons o- bey, Nor the|joy of sal- va- tion|spurn!||
w: fol- ly re- sign, And ac-|cept Him with love sin-|cere!|Hear ye|
w: cour- age u- nite, And bright|sheaves for His king- dom|gain.||
w: not, I’m the light, And to|safe- ty your bark will|steer.”||
 [DB]6 [DF][DB] | [Fd]6 [DB][Ec] | [Fd]2 [Fd][Fd] [Fd]3 [FB] | [Fc]6 [DF][DB] | [Fd]6 [DB][Fd] | %15
w: |||||
w: Him, hear ye|Him, He is|call- ing you, way- ward|one; Hear ye|Him, hear ye|
w: |||||
w: |||||
 [Ge]6 [DB][Ec] | [Fd]2 [DF][DB] [Fd]3 [Ec] | [DB]6 |] %18
w: |||
w: Him, Christ, the|Fa- ther’s be- lov- èd|Son.|
w: |||
w: |||
V:2
 [B,,B,][B,,B,] | [B,,B,]2 [B,,F,][B,,F,] [B,,F,]2 [B,,B,][B,,F,] | %2
w: ~ ~|~ ~ ~ ~ ~ ~|
 [E,G,]2 [E,G,][E,B,] [B,,B,]2 [B,,B,][B,,B,] | [B,,B,]2 [B,,B,][B,,B,] [B,,B,]3 [D,B,] | %4
w: ~ ~ ~ ~ ~ ~|~ ~ ~ ~ ~|
 [F,A,]6 [B,,B,][B,,B,] | [B,,B,]2 [B,,F,][B,,F,] [B,,B,]2 [B,,B,][B,,F,] | %6
w: ~ ~ ~|~ ~ ~ ~ ~ ~|
 [E,G,]2 [E,G,][E,B,] [B,,B,]2 [B,,F,][B,,F,] | [B,,B,]2 [D,B,][G,B,] [F,B,]3 [F,A,] | [B,,B,]6 || %9
w: ~ ~ ~ ~ ~ ~|~ ~ ~ ~ ~|~|
 z2 | z2 [B,,F,][B,,F,] [B,,F,]2 z2 | z2 [B,,B,][B,,B,] [B,,B,]2 [B,,F,][B,,F,] | %12
w: |Hear ye Him,|hear ye Him, ~ ~|
 [B,,B,]2 [B,,B,][B,,B,] [B,,B,]3 [D,B,] | [F,A,]6 z2 | z2 [B,,B,][B,,B,] [B,,B,]2 z2 | %15
w: ~ ~ ~ ~ ~|~|Hear ye Him,|
 z2 [E,B,][E,B,] [E,B,]2 [B,,F,][B,,F,] | [B,,B,]2 [D,B,][G,B,] [F,B,]3 [F,A,] | [B,,B,]6 |] %18
w: hear ye Him, * *|||

